svg/clouds.svg

<svg xmlns="http://www.w3.org/2000/svg" viewBox="0 0 24 24"><path d="M19.19 12.07c.5-.53.81-1.25.81-2.07 0-1.7-1.3-3.16-3-3.16h-2.8C14.2 4.17 12.03 2 9.36 2c-2.05 0-3.8 1.28-4.51 3.08A3.967 3.967 0 0 0 1 9.04 3.97 3.97 0 0 0 4.96 13H8.1c-.06.33-.1.66-.1 1h-.5C5.57 14 4 15.57 4 17.5S5.57 21 7.5 21h11c2.5 0 4.5-2 4.5-4.5 0-2.24-1.66-4.09-3.81-4.43M18.5 19h-11c-.83 0-1.5-.67-1.5-1.5S6.67 16 7.5 16H10v-2c0-1.93 1.57-3.5 3.5-3.5S17 12.07 17 14h1.5a2.5 2.5 0 0 1 0 5"/></svg>

<svg xmlns="http://www.w3.org/2000/svg" id="mdi-clouds" viewBox="0 0 24 24"><path d="M19.19 12.07C19.69 11.54 20 10.82 20 10C20 8.3 18.7 6.84 17 6.84H14.2C14.2 4.17 12.03 2 9.36 2C7.31 2 5.56 3.28 4.85 5.08C2.72 5.14 1 6.89 1 9.04C1 11.22 2.78 13 4.96 13H8.1C8.04 13.33 8 13.66 8 14H7.5C5.57 14 4 15.57 4 17.5S5.57 21 7.5 21H18.5C21 21 23 19 23 16.5C23 14.26 21.34 12.41 19.19 12.07M18.5 19H7.5C6.67 19 6 18.33 6 17.5S6.67 16 7.5 16H10V14C10 12.07 11.57 10.5 13.5 10.5S17 12.07 17 14H18.5C19.88 14 21 15.12 21 16.5S19.88 19 18.5 19Z" /></svg>
